public/flags/gb.svg

<?xml version="1.0" encoding="utf-8"?>
<!-- Uploaded to: SVG Repo, www.svgrepo.com, Generator: SVG Repo Mixer Tools -->
<svg width="800px" height="800px" viewBox="0 -4 28 28" fill="none" xmlns="http://www.w3.org/2000/svg">
<g clip-path="url(#clip0_503_2952)">
<rect width="28" height="20" rx="2" fill="white"/>
<mask id="mask0_503_2952" style="mask-type:alpha" maskUnits="userSpaceOnUse" x="0" y="0" width="28" height="20">
<rect width="28" height="20" rx="2" fill="white"/>
</mask>
<g mask="url(#mask0_503_2952)">
<rect width="28" height="20" fill="#0A17A7"/>
<path fill-rule="evenodd" clip-rule="evenodd" d="M-1.28244 -1.91644L10.6667 6.14335V-1.33333H17.3334V6.14335L29.2825 -1.91644L30.7737 0.294324L21.3263 6.66667H28V13.3333H21.3263L30.7737 19.7057L29.2825 21.9165L17.3334 13.8567V21.3333H10.6667V13.8567L-1.28244 21.9165L-2.77362 19.7057L6.67377 13.3333H2.95639e-05V6.66667H6.67377L-2.77362 0.294324L-1.28244 -1.91644Z" fill="white"/>
<path d="M18.668 6.33219L31.3333 -2" stroke="#DB1F35" stroke-width="0.666667" stroke-linecap="round"/>
<path d="M20.0128 13.6975L31.3666 21.3503" stroke="#DB1F35" stroke-width="0.666667" stroke-linecap="round"/>
<path d="M8.00555 6.31046L-3.83746 -1.67099" stroke="#DB1F35" stroke-width="0.666667" stroke-linecap="round"/>
<path d="M9.29006 13.6049L-3.83746 22.3105" stroke="#DB1F35" stroke-width="0.666667" stroke-linecap="round"/>
<path fill-rule="evenodd" clip-rule="evenodd" d="M0 12H12V20H16V12H28V8H16V0H12V8H0V12Z" fill="#E6273E"/>
</g>
</g>
<defs>
<clipPath id="clip0_503_2952">
<rect width="28" height="20" rx="2" fill="white"/>
</clipPath>
</defs>
</svg>

<svg xmlns="http://www.w3.org/2000/svg" width="800" height="800" fill="none" viewBox="0 -4 28 28"><g clip-path="url(#a)"><rect width="28" height="20" fill="#fff" rx="2"/><mask id="b" width="28" height="20" x="0" y="0" maskUnits="userSpaceOnUse" style="mask-type:alpha"><rect width="28" height="20" fill="#fff" rx="2"/></mask><g mask="url(#b)"><path fill="#0a17a7" d="M0 0h28v20H0z"/><path fill="#fff" fill-rule="evenodd" d="m-1.282-1.916 11.949 8.06v-7.477h6.666v7.476l11.95-8.06 1.49 2.211-9.447 6.373H28v6.666h-6.674l9.448 6.373-1.492 2.21-11.949-8.06v7.477h-6.666v-7.476l-11.95 8.06-1.49-2.211 9.447-6.373H0V6.667h6.674L-2.774.294z" clip-rule="evenodd"/><path stroke="#db1f35" stroke-linecap="round" stroke-width=".667" d="M18.668 6.332 31.333-2m-11.32 15.698 11.354 7.652M8.006 6.31-3.837-1.67M9.29 13.605-3.837 22.31"/><path fill="#e6273e" fill-rule="evenodd" d="M0 12h12v8h4v-8h12V8H16V0h-4v8H0z" clip-rule="evenodd"/></g></g><defs><clipPath id="a"><rect width="28" height="20" fill="#fff" rx="2"/></clipPath></defs></svg>
